svgs/light/puzzle.svg

<svg xmlns="http://www.w3.org/2000/svg" viewBox="0 0 512 512"><!--! Font Awesome Pro 6.6.0 by @fontawesome - https://fontawesome.com License - https://fontawesome.com/license (Commercial License) Copyright 2024 Fonticons, Inc. --><path d="M320 0c-17.7 0-32 14.3-32 32l0 24c0 17.7 14.3 32 32 32l16 0c8.8 0 16 7.2 16 16s-7.2 16-16 16l-16 0c-17.7 0-32 14.3-32 32l0 24c0 17.7 14.3 32 32 32l32 0c0 26.5 21.5 48 48 48s48-21.5 48-48l32 0c17.7 0 32-14.3 32-32l0-112c0-35.3-28.7-64-64-64L320 0zm0 32l128 0c17.7 0 32 14.3 32 32l0 112-48 0c-8.8 0-16 7.2-16 16l0 16c0 8.8-7.2 16-16 16s-16-7.2-16-16l0-16c0-8.8-7.2-16-16-16l-48 0 0-24 16 0c26.5 0 48-21.5 48-48s-21.5-48-48-48l-16 0 0-24zM64 64C28.7 64 0 92.7 0 128L0 288 0 448c0 35.3 28.7 64 64 64l160 0 160 0c35.3 0 64-28.7 64-64l0-144c0-17.7-14.3-32-32-32l-48 0c-17.7 0-32 14.3-32 32l0 16c0 8.8-7.2 16-16 16s-16-7.2-16-16l0-16c0-17.7-14.3-32-32-32l-32 0 0-176c0-17.7-14.3-32-32-32L64 64zM208 96l0 176-32 0 0-16c0-26.5-21.5-48-48-48s-48 21.5-48 48l0 16-48 0 0-144c0-17.7 14.3-32 32-32l144 0zM80 304c17.7 0 32-14.3 32-32l0-16c0-8.8 7.2-16 16-16s16 7.2 16 16l0 16c0 17.7 14.3 32 32 32l32 0 0 32-16 0c-26.5 0-48 21.5-48 48s21.5 48 48 48l16 0 0 48L64 480c-17.7 0-32-14.3-32-32l0-144 48 0zM240 432c0-17.7-14.3-32-32-32l-16 0c-8.8 0-16-7.2-16-16s7.2-16 16-16l16 0c17.7 0 32-14.3 32-32l0-32 32 0 0 16c0 26.5 21.5 48 48 48s48-21.5 48-48l0-16 48 0 0 144c0 17.7-14.3 32-32 32l-144 0 0-48z"/></svg>

<svg xmlns="http://www.w3.org/2000/svg" viewBox="0 0 512 512"><!--! Font Awesome Pro 6.4.0 by @fontawesome - https://fontawesome.com License - https://fontawesome.com/license (Commercial License) Copyright 2023 Fonticons, Inc. --><path d="M320 0c-17.7 0-32 14.3-32 32V56c0 17.7 14.3 32 32 32h16c8.8 0 16 7.2 16 16s-7.2 16-16 16H320c-17.7 0-32 14.3-32 32v24c0 17.7 14.3 32 32 32h32c0 26.5 21.5 48 48 48s48-21.5 48-48h32c17.7 0 32-14.3 32-32V64c0-35.3-28.7-64-64-64H320zm0 32H448c17.7 0 32 14.3 32 32V176H432c-8.8 0-16 7.2-16 16v16c0 8.8-7.2 16-16 16s-16-7.2-16-16V192c0-8.8-7.2-16-16-16H320V152h16c26.5 0 48-21.5 48-48s-21.5-48-48-48H320V32zM64 64C28.7 64 0 92.7 0 128V288 448c0 35.3 28.7 64 64 64H224 384c35.3 0 64-28.7 64-64V304c0-17.7-14.3-32-32-32H368c-17.7 0-32 14.3-32 32v16c0 8.8-7.2 16-16 16s-16-7.2-16-16V304c0-17.7-14.3-32-32-32H240V96c0-17.7-14.3-32-32-32H64zM208 96V272H176V256c0-26.5-21.5-48-48-48s-48 21.5-48 48v16H32V128c0-17.7 14.3-32 32-32H208zM80 304c17.7 0 32-14.3 32-32V256c0-8.8 7.2-16 16-16s16 7.2 16 16v16c0 17.7 14.3 32 32 32h32v32H192c-26.5 0-48 21.5-48 48s21.5 48 48 48h16v48H64c-17.7 0-32-14.3-32-32V304H80zM240 432c0-17.7-14.3-32-32-32H192c-8.8 0-16-7.2-16-16s7.2-16 16-16h16c17.7 0 32-14.3 32-32V304h32v16c0 26.5 21.5 48 48 48s48-21.5 48-48V304h48V448c0 17.7-14.3 32-32 32H240V432z"/></svg>
